!!!COM: Haydn, Franz Joseph
!!!OPR: Symphony in G Major
!!!OTL: Affettuoso 
!!!OMV: 3
!!!SCT: H I:94
!!!SCA: Thematisch-bibliographisches Werkevererzeichnis (A. van Hoboken)
!!!YOR: Dover Edition
!!!EED: Frances Bennion
!!!ENC: Frances Bennion
!!!CDT: 1732/3/31/-1809/5/31/
!!!OCY: Österreich
!!!YEC: Copyright (c) 1994, 2000 Center for Computer Assisted Research in the Humanities
!!!YEM: Rights to all derivative editions reserved.
!!!YEM: Refer to licensing agreement for further details.
!!!YEN: United States of America
**kern	**kern	**kern	**kern	**kern	**kern	**kern	**kern	**kern	**kern	**kern	**kern	**kern	**kern	**kern	**kern
*k[f#]	*k[]	*k[]	*k[f#]	*k[f#]	*k[f#]	*k[f#]	*k[f#]	*k[f#]	*k[f#]	*k[f#]	*k[f#]	*k[f#]	*k[]	*k[]	*k[]
*G:	*G:	*G:	*G:	*G:	*G:	*G:	*G:	*G:	*G:	*G:	*G:	*G:	*G:	*G:	*G:
*clefF	*clefF	*clefF4	*clefF	*clefF	*clefC3	*clefF4	*clefF4	*clefF	*clefF	*clefF	*clefF4	*clefF4	*clefF	*clefF	*clefF
*M3/4	*M3/4	*M3/4	*M3/4	*M3/4	*M3/4	*M3/4	*M3/4	*M3/4	*M3/4	*M3/4	*M3/4	*M3/4	*M3/4	*M3/4	*M3/4
*tb8	*tb8	*tb8	*tb8	*tb8	*tb8	*tb8	*tb8	*tb8	*tb8	*tb8	*tb8	*tb8	*tb8	*tb8	*tb8
=0-	=0-	=0-	=0-	=0-	=0-	=0-	=0-	=0-	=0-	=0-	=0-	=0-	=0-	=0-	=0-
2r	2r	2r	2r	2r	2r	2r	2r	2r	2r	2r	2r	2r	2r	2r	2r
8g	4r	4r	8g	4r	4r	4r	4r	8g	4r	4r	8G	8G	4r	4r	4r
8a	.	.	8a	.	.	.	.	8a	.	.	8A	8A	.	.	.
=1	=1	=1	=1	=1	=1	=1	=1	=1	=1	=1	=1	=1	=1	=1	=1
4b	4g	4GG	4b	4r	4r	4G	4G	4b	4r	4r	4B	4B	4r	4r	4g
4g	2r	2r	4g	4B 4d	4G	2r	2r	4g	4b	4g	4G	4G	4cc	4e	2r
4dd	.	.	4dd	4d 4B	4G	.	.	4dd	4b	4g	4d	4d	4cc	4e	.
=2	=2	=2	=2	=2	=2	=2	=2	=2	=2	=2	=2	=2	=2	=2	=2
4b	4g	4GG	4b	4r	4r	4G	4G	4b	4r	4r	4B	4B	4r	4r	4g
4g	2r	2r	4g	4B 4d	4G	2r	2r	4g	4b	4g	4G	4G	4cc	4e	2r
4gg	.	.	4gg	4B 4d	4G	.	.	4gg	4b	4g	4g	4g	4cc	4e	.
=3	=3	=3	=3	=3	=3	=3	=3	=3	=3	=3	=3	=3	=3	=3	=3
4ff#	4dd	4D	4ff#	4r	4r	4D	4D	4ff#	4r	4r	4f#	4f#	4r	4r	4dd
4dd	4dd	2r	4dd	4d 4c	4A 4F#	4F#	4F#	4dd	4cc	4a	4d	4d	4dd	4g	4dd
4cc	4dd	.	4cc	4d 4c	4A 4F#	4A	4A	4cc	4cc	4a	4c	4c	4dd	4g	4dd
=4	=4	=4	=4	=4	=4	=4	=4	=4	=4	=4	=4	=4	=4	=4	=4
4aa	4dd	4D	4aa 4d 4cc	4c 4d	4A 4F#	4D	4D	4aa	4cc	4a	4A	4A	4dd	4g	4dd
4r	2r	2r	4r	2r	2r	2r	2r	4r	2r	2r	4r	4r	2r	2r	2r
8d	.	.	8d	.	.	.	.	8d	.	.	8D	8D	.	.	.
8e	.	.	8e	.	.	.	.	8e	.	.	8E	8E	.	.	.
=5	=5	=5	=5	=5	=5	=5	=5	=5	=5	=5	=5	=5	=5	=5	=5
4f#	4dd	4D	4f#	4r	4r	4D	4D	4f#	4r	4r	4F#	4F#	4r	4r	4dd
4d	2r	2r	4d	4d 4c	4A 4F#	2r	2r	4d	4a	4f#	4D	4D	4dd	4g	2r
4a	.	.	4a	4d 4c	4A 4F#	.	.	4a	4a	4f#	4A	4A	4dd	4g	.
=6	=6	=6	=6	=6	=6	=6	=6	=6	=6	=6	=6	=6	=6	=6	=6
4f#	4dd	4D	4f#	4r	4r	4D	4D	4f#	4r	4r	4F#	4F#	4r	4r	4dd
4d	2r	2r	4d	4f# 4A	4A 4F#	2r	2r	4d	4a	4f#	4D	4D	4dd	4g	2r
4cc	.	.	4cc	4f# 4A	4A 4F#	.	.	4cc	4a	4f#	4c	4c	4dd	4g	.
=7	=7	=7	=7	=7	=7	=7	=7	=7	=7	=7	=7	=7	=7	=7	=7
4b	4g	4GG	4b	4r	4r	4G	4G	4b	4r	4r	4B	4B	4r	4r	4dd
4g	4g	2r	4g	4g 4B	4G	4D	4D	4g	4b	4g	4G	4G	4ee	4cc	4dd
4g	4g	.	4g	4g 4B	4G	4BB	4BB	4g	4b	4g	4G	4G	4ee	4cc	4dd
=8	=8	=8	=8	=8	=8	=8	=8	=8	=8	=8	=8	=8	=8	=8	=8
4gg	4g	4GG	4gg 4d 4b	4g 4B	4G	4GG	4GG	4gg	4b	4g	4GG	4GG	4ee	4cc	4dd
4r	2r	2r	4r	2r	2r	2r	2r	2r	2r	2r	2r	2r	2r	2r	2r
8gg	.	.	8g	.	.	.	.	.	.	.	.	.	.	.	.
8aa	.	.	8a	.	.	.	.	.	.	.	.	.	.	.	.
=9	=9	=9	=9	=9	=9	=9	=9	=9	=9	=9	=9	=9	=9	=9	=9
4bb	2.r	2.r	4b	2.f	4d	[2.G	[2.G	2.r	2.r	2.r	4d	2.r	2.r	2.r	2.r
4aa	.	.	4a	.	4c	.	.	.	.	.	4c	.	.	.	.
4bb	.	.	4b	.	4d	.	.	.	.	.	4d	.	.	.	.
=10	=10	=10	=10	=10	=10	=10	=10	=10	=10	=10	=10	=10	=10	=10	=10
2.ccc	2.r	2.r	2.cc	4e	4g	2.G_	2.G_	2.r	2.r	2.r	4e	2.r	2.r	2.r	2.r
.	.	.	.	4d	4f	.	.	.	.	.	2r	.	.	.	.
.	.	.	.	4c	4e	.	.	.	.	.	.	.	.	.	.
=11	=11	=11	=11	=11	=11	=11	=11	=11	=11	=11	=11	=11	=11	=11	=11
4ddd	2.r	2.r	4dd	2.B	4d	2.G]	2.G]	2.r	2.r	2.r	4f	2.r	2.r	2.r	2.r
4ccc	.	.	4cc	.	4e	.	.	.	.	.	4e	.	.	.	.
4ddd	.	.	4dd	.	4f	.	.	.	.	.	4d	.	.	.	.
=12	=12	=12	=12	=12	=12	=12	=12	=12	=12	=12	=12	=12	=12	=12	=12
2.eee	2.r	2.r	2.ee	4c	4g	4C	4C	2.r	2.r	2.r	4c	2.r	2.r	2.r	2.r
.	.	.	.	2r	4B	4BB	4BB	.	.	.	2r	.	.	.	.
.	.	.	.	.	4c	4C	4C	.	.	.	.	.	.	.	.
=13	=13	=13	=13	=13	=13	=13	=13	=13	=13	=13	=13	=13	=13	=13	=13
4ccc#	2.r	2.r	4cc#	2.g	2.e	2.A	2.A	4ccc#	4ee	4cc#	2.e	2.e	4dd	4dd	2.r
4bb	.	.	4b	.	.	.	.	4bb	4dd	4b	.	.	4dd	4dd	.
4ccc#	.	.	4cc#	.	.	.	.	4ccc#	4ee	4cc#	.	.	4dd	4dd	.
=14	=14	=14	=14	=14	=14	=14	=14	=14	=14	=14	=14	=14	=14	=14	=14
2.ddd	4dd	4D	2.dd	4f#	4a	4D	4D	2.ddd	4ff#	2.dd	4d	4d	2.dd	2.g	4dd
.	2r	2r	.	4e	4c#	4C#	4C#	.	4ee	.	4c#	4c#	.	.	2r
.	.	.	.	4f#	4d	4D	4D	.	4ff#	.	4d	4d	.	.	.
=15	=15	=15	=15	=15	=15	=15	=15	=15	=15	=15	=15	=15	=15	=15	=15
4ee	2.r	2.r	4cc#	2.g	4e	2.G	2.G	4ee	4cc#	2.g	2.A	2.A	4dd	4dd	2.r
4dd	.	.	4b	.	4d	.	.	4dd	4b	.	.	.	4dd	4dd	.
4ee	.	.	4cc#	.	4e	.	.	4ee	4cc#	.	.	.	4dd	4dd	.
=16	=16	=16	=16	=16	=16	=16	=16	=16	=16	=16	=16	=16	=16	=16	=16
8dd	2.dd	4D	8dd	8f#	4f#	4F#	4F#	8dd	8dd	8f#	4F#	4F#	2.dd	2.g	2.dd
8ee	.	.	8ee	8g	.	.	.	8ee	8ee	8g	.	.	.	.	.
8ff#	.	2r	8ff#	8a	4d	4D	4D	8ff#	8ff#	8a	4D	4D	.	.	.
8gg	.	.	8gg	8b	.	.	.	8gg	8gg	8b	.	.	.	.	.
8aa	.	.	8aa	8cc#	4d	4D	4D	8aa	8aa	8cc#	4D	4D	.	.	.
8bb	.	.	8bb	8dd	.	.	.	8bb	8bb	8dd	.	.	.	.	.
=17	=17	=17	=17	=17	=17	=17	=17	=17	=17	=17	=17	=17	=17	=17	=17
4ccc#	4ee	2.r	4ccc#	4ee	2A	4AA	4AA	4ccc#	4ccc#	4ee	4AA	4AA	4dd	4dd	4ee
8eee	4ee	.	8eee	8gg	.	4AA	4AA	8eee	4ccc#	4gg	4AA	4AA	4dd	4dd	4ee
8ccc#	.	.	8ccc#	8ee	.	.	.	8ccc#	.	.	.	.	.	.	.
4aa	4ee	.	4aa	4cc#	4G	4AA	4AA	4aa	4ccc#	4ee	4AA	4AA	4dd	4dd	4ee
=18	=18	=18	=18	=18	=18	=18	=18	=18	=18	=18	=18	=18	=18	=18	=18
4ddd	4dd	4D	4ddd	4dd	4F#	4D	4D	4ddd	4ddd	4dd	4D	4D	4dd	4g	4dd
4r	4r	4r	4r	4r	4r	4r	4r	4r	4r	4r	4r	4r	4r	4r	4r
4r	4r	4r	8f#	8f#	4r	4r	4r	4r	4r	4r	4r	4r	4r	4r	4r
.	.	.	8e	8e	.	.	.	.	.	.	.	.	.	.	.
=19	=19	=19	=19	=19	=19	=19	=19	=19	=19	=19	=19	=19	=19	=19	=19
2.r	2.r	2.r	8d	8d	2r	2r	2r	2.r	2.r	2.r	2r	2r	2.r	2.r	2.r
.	.	.	8e	8e	.	.	.	.	.	.	.	.	.	.	.
.	.	.	8f#	8f#	.	.	.	.	.	.	.	.	.	.	.
.	.	.	8g	8g	.	.	.	.	.	.	.	.	.	.	.
.	.	.	8a	8a	8c	8C	8C	.	.	.	8C	8C	.	.	.
.	.	.	8b	8b	8B	8BB	8BB	.	.	.	8BB	8BB	.	.	.
=20	=20	=20	=20	=20	=20	=20	=20	=20	=20	=20	=20	=20	=20	=20	=20
2.r	2.r	2.r	4cc	4cc	8A	8AA	8AA	2.r	2.r	2.r	8AA	8AA	2.r	2.r	2.r
.	.	.	.	.	8B	8BB	8BB	.	.	.	8BB	8BB	.	.	.
.	.	.	8ee	8ee	8c	8C	8C	.	.	.	8C	8C	.	.	.
.	.	.	8cc	8cc	8d	8D	8D	.	.	.	8D	8D	.	.	.
.	.	.	4a	4a	8e	8E	8E	.	.	.	8E	8E	.	.	.
.	.	.	.	.	8f#	8F#	8F#	.	.	.	8F#	8F#	.	.	.
=21	=21	=21	=21	=21	=21	=21	=21	=21	=21	=21	=21	=21	=21	=21	=21
2.r	2.r	2.r	4b	4b	4g	4G	4G	2.r	2.r	2.r	4G	4G	2.r	2.r	2.r
.	.	.	4g	4g	8b	8B	8B	.	.	.	8B	8B	.	.	.
.	.	.	.	.	8g	8G	8G	.	.	.	8G	8G	.	.	.
.	.	.	4cc#	4cc#	4e	4E	4E	.	.	.	4E	4E	.	.	.
=22	=22	=22	=22	=22	=22	=22	=22	=22	=22	=22	=22	=22	=22	=22	=22
2.r	2.r	2.r	8dd	4dd	4f#	4F#	4F#	2.r	2.r	2.r	4F#	4F#	2.r	2.r	2.r
.	.	.	8ee	.	.	.	.	.	.	.	.	.	.	.	.
.	.	.	8ff#	4r	4d	4D	4D	.	.	.	4D	4D	.	.	.
.	.	.	8gg	.	.	.	.	.	.	.	.	.	.	.	.
.	.	.	8aa	8c	4r	4r	4r	.	.	.	4r	4r	.	.	.
.	.	.	8bb	8B	.	.	.	.	.	.	.	.	.	.	.
=23	=23	=23	=23	=23	=23	=23	=23	=23	=23	=23	=23	=23	=23	=23	=23
2.r	2.r	2.r	4ccc	8A	2.r	2.r	2.r	2.r	2.r	2.r	2.r	2.r	2.r	2.r	2.r
.	.	.	.	8B	.	.	.	.	.	.	.	.	.	.	.
.	.	.	8eee	8c	.	.	.	.	.	.	.	.	.	.	.
.	.	.	8ccc	8d	.	.	.	.	.	.	.	.	.	.	.
.	.	.	4aa	8e	.	.	.	.	.	.	.	.	.	.	.
.	.	.	.	8f#	.	.	.	.	.	.	.	.	.	.	.
=24	=24	=24	=24	=24	=24	=24	=24	=24	=24	=24	=24	=24	=24	=24	=24
2.r	2.r	2.r	4bb	4g	2.r	2.r	2.r	2.r	2.r	2.r	2.r	2.r	2.r	2.r	2.r
.	.	.	4gg	8b	.	.	.	.	.	.	.	.	.	.	.
.	.	.	.	8g	.	.	.	.	.	.	.	.	.	.	.
.	.	.	4ccc	4e	.	.	.	.	.	.	.	.	.	.	.
=25	=25	=25	=25	=25	=25	=25	=25	=25	=25	=25	=25	=25	=25	=25	=25
2.r	2.r	2.r	4aa	4f#	2.r	2.r	2.r	2.r	2.r	2.r	2.r	2.r	2.r	2.r	2.r
.	.	.	4ff#	8a	.	.	.	.	.	.	.	.	.	.	.
.	.	.	.	8f#	.	.	.	.	.	.	.	.	.	.	.
.	.	.	4bb	4d#	.	.	.	.	.	.	.	.	.	.	.
=26	=26	=26	=26	=26	=26	=26	=26	=26	=26	=26	=26	=26	=26	=26	=26
2.r	2.r	2.r	4gg	4e	2.r	2.r	2.r	2.r	2.r	2.r	2.r	2.r	2.r	2.r	2.r
.	.	.	4ee	8g	.	.	.	.	.	.	.	.	.	.	.
.	.	.	.	8e	.	.	.	.	.	.	.	.	.	.	.
.	.	.	4aa	4c#	.	.	.	.	.	.	.	.	.	.	.
=27	=27	=27	=27	=27	=27	=27	=27	=27	=27	=27	=27	=27	=27	=27	=27
2.r	2.r	2.r	4ff#	2d	2.r	2.r	2.r	2.r	2.r	2.r	2.r	2.r	2.r	2.r	2.r
.	.	.	4dd	.	.	.	.	.	.	.	.	.	.	.	.
.	.	.	8a	4r	.	.	.	.	.	.	.	.	.	.	.
.	.	.	8b-	.	.	.	.	.	.	.	.	.	.	.	.
=28	=28	=28	=28	=28	=28	=28	=28	=28	=28	=28	=28	=28	=28	=28	=28
2.aa	2.dd	4D	4cc	4ff# 4d 4a	4cc 4d	4D	4D	2.aa	2.ff#	2.cc	2.d	2.d	2.dd	2.g	[2.dd
.	.	2r	8ee-	2r	2r	2r	2r	.	.	.	.	.	.	.	.
.	.	.	8cc	.	.	.	.	.	.	.	.	.	.	.	.
.	.	.	4a	.	.	.	.	.	.	.	.	.	.	.	.
=29	=29	=29	=29	=29	=29	=29	=29	=29	=29	=29	=29	=29	=29	=29	=29
2.bb-	4g	4GG	4b-	4gg 4d 4b-	4b- 4d	4G	4G	2.bb-	2.gg	2.b-	2.G	2.G	4cc	4cc	4dd]
.	2r	2r	8dd	2r	2r	2r	2r	.	.	.	.	.	2r	2r	2r
.	.	.	8b-	.	.	.	.	.	.	.	.	.	.	.	.
.	.	.	4g	.	.	.	.	.	.	.	.	.	.	.	.
=30	=30	=30	=30	=30	=30	=30	=30	=30	=30	=30	=30	=30	=30	=30	=30
2.ff	2.r	2.r	4a-	4dd 4f 4B-	4a- 4B-	4BB-	4BB-	2.ff	2.dd	2.a-	2.B-	2.B-	2.r	2.r	2.r
.	.	.	8cc	2r	2r	2r	2r	.	.	.	.	.	.	.	.
.	.	.	8a-	.	.	.	.	.	.	.	.	.	.	.	.
.	.	.	4f	.	.	.	.	.	.	.	.	.	.	.	.
=31	=31	=31	=31	=31	=31	=31	=31	=31	=31	=31	=31	=31	=31	=31	=31
2.gg	2.r	2.r	4g	4G 4ee- 4e-	4B- 4g	4E-	4E-	2.gg	2.ee-	2.g	2.E-	2.E-	2.r	2.r	2.r
.	.	.	8b-	2r	2r	2r	2r	.	.	.	.	.	.	.	.
.	.	.	8g	.	.	.	.	.	.	.	.	.	.	.	.
.	.	.	4e-	.	.	.	.	.	.	.	.	.	.	.	.
=32	=32	=32	=32	=32	=32	=32	=32	=32	=32	=32	=32	=32	=32	=32	=32
2.dd	2.g	4GG	4f	4G 4b 4f	4f 4G	4GG	4GG	2.dd	2.b	2.ff	2.G	2.G	2.r	2.r	2.dd
.	.	2r	8a-	2r	2r	2r	2r	.	.	.	.	.	.	.	.
.	.	.	8f	.	.	.	.	.	.	.	.	.	.	.	.
.	.	.	4d	.	.	.	.	.	.	.	.	.	.	.	.
=33	=33	=33	=33	=33	=33	=33	=33	=33	=33	=33	=33	=33	=33	=33	=33
2.ee-	2.cc	2.r	4e-	4e- 4cc 4G	4G 4e-	4C	4C	2.ee-	2.cc	2.ee-	2.C	2.C	2.r	2.r	2.cc
.	.	.	8g	2r	2r	2r	2r	.	.	.	.	.	.	.	.
.	.	.	8e-	.	.	.	.	.	.	.	.	.	.	.	.
.	.	.	4c	.	.	.	.	.	.	.	.	.	.	.	.
=34	=34	=34	=34	=34	=34	=34	=34	=34	=34	=34	=34	=34	=34	=34	=34
2.ee	2.ee	2.r	4g	4cc# 4g 4A	4e 4G	4AA	4AA	2.ee	2.cc#	2.gg	2.AA	2.AA	2.r	2.r	2.ee
.	.	.	8b-	2r	2r	2r	2r	.	.	.	.	.	.	.	.
.	.	.	8g	.	.	.	.	.	.	.	.	.	.	.	.
.	.	.	4e	.	.	.	.	.	.	.	.	.	.	.	.
=35	=35	=35	=35	=35	=35	=35	=35	=35	=35	=35	=35	=35	=35	=35	=35
4ff#	4dd	4D	4f#	4dd 4A 4f#	4f# 4A	4D	4D	4ff#	4dd	4ff#	4D	4D	[2.g	[2.G	4dd
2r	2r	2r	4dd	2r	2r	2r	2r	2r	2r	2r	4r	4r	.	.	2r
.	.	.	8d	.	.	.	.	.	.	.	8D	8D	.	.	.
.	.	.	8e	.	.	.	.	.	.	.	8E	8E	.	.	.
=36	=36	=36	=36	=36	=36	=36	=36	=36	=36	=36	=36	=36	=36	=36	=36
2.r	4dd	4D	4f#	4f# 4dd 4A	4A 4D 4f#	4D	4D	2.r	4dd	4ff#	4F#	4F#	2.g_	2.G_	4dd
.	2r	2r	4dd	4r	2r	2r	2r	.	2r	2r	4r	4r	.	.	2r
.	.	.	8f#	8d	.	.	.	.	.	.	8F#	8D	.	.	.
.	.	.	8g	8e	.	.	.	.	.	.	8G	8E	.	.	.
=37	=37	=37	=37	=37	=37	=37	=37	=37	=37	=37	=37	=37	=37	=37	=37
2.r	4dd	4D	4a	4f#	4D 4f# 4A	4D	4D	2.r	4dd	4ff#	4A	4F#	2.g_	2.G_	4dd
.	2r	2r	4dd	4r	2r	2r	2r	.	2r	2r	4r	4r	.	.	2r
.	.	.	8a	8f#	.	.	.	.	.	.	8A	8F#	.	.	.
.	.	.	8b	8g	.	.	.	.	.	.	8B	8G	.	.	.
=38	=38	=38	=38	=38	=38	=38	=38	=38	=38	=38	=38	=38	=38	=38	=38
2r	4dd	4D	4cc	4a	4D 4f# 4A	4D	4D	2.r	4dd	4ff#	4c	4A	4g]	4G]	4dd
.	2r	2r	2r	2r	2r	2r	2r	.	4r	2r	2r	2r	2r	2r	2r
8aa	.	.	.	.	.	.	.	.	8ff#	.	.	.	.	.	.
8bb	.	.	.	.	.	.	.	.	8gg	.	.	.	.	.	.
=39	=39	=39	=39	=39	=39	=39	=39	=39	=39	=39	=39	=39	=39	=39	=39
4ccc	2.r	2.r	2.r	2.r	2.r	2r	2.r	2.r	4aa	2.r	2r	2r	2.r	2.r	2.r
2r	.	.	.	.	.	.	.	.	2r	.	.	.	.	.	.
.	.	.	.	.	.	8FF#	.	.	.	.	8F#	8F#	.	.	.
.	.	.	.	.	.	8EE	.	.	.	.	8E	8E	.	.	.
=40	=40	=40	=40	=40	=40	=40	=40	=40	=40	=40	=40	=40	=40	=40	=40
2r	2.r	2.r	2r	2.r	2.r	4DD	2.r	2r	2.r	2.r	4D	4D	2.r	2.r	2.r
.	.	.	.	.	.	2r	.	.	.	.	4r	4r	.	.	.
8g	.	.	8g	.	.	.	.	8g	.	.	8G	8G	.	.	.
8a	.	.	8a	.	.	.	.	8a	.	.	8A	8A	.	.	.
=41	=41	=41	=41	=41	=41	=41	=41	=41	=41	=41	=41	=41	=41	=41	=41
4b	[2.g	4GG	4b	4r	4r	4G	4G	4b	4r	4r	4B	4B	4r	4r	[2.dd
4g	.	2r	4g	4d 4B	4G	2r	2r	4g	4bb	4gg	4G	4G	4cc	4e	.
4dd	.	.	4dd	4B 4d	4G	.	.	4dd	4bb	4gg	4d	4d	4cc	4e	.
=42	=42	=42	=42	=42	=42	=42	=42	=42	=42	=42	=42	=42	=42	=42	=42
4b	2.g]	4GG	4b	4r	4r	4G	4G	4b	4r	4r	4B	4B	4r	4r	2.dd]
4g	.	2r	4g	4B 4d	4G	2r	2r	4g	4bb	4gg	4G	4G	4cc	4e	.
4gg	.	.	4gg	4B 4d	4G	.	.	4gg	4bb	4gg	4g	4g	4cc	4e	.
=43	=43	=43	=43	=43	=43	=43	=43	=43	=43	=43	=43	=43	=43	=43	=43
4ff#	4dd	4D	4ff#	4r	4r	4D	4D	4ff#	4r	4r	4f#	4f#	4r	4r	4dd
4ff#	4dd	2r	4dd	4c 4d	4F#	4F#	4F#	4ff#	4ccc	4aa	4d	4d	4dd	4g	4dd
4ff#	4dd	.	4cc	4d 4c	4F#	4A	4A	4ff#	4ccc	4aa	4c	4c	4dd	4g	4dd
=44	=44	=44	=44	=44	=44	=44	=44	=44	=44	=44	=44	=44	=44	=44	=44
4ff#	4dd	4D	4aa 4d 4cc	4d 4c	4F#	4D	4D	4ff#	4ccc	4aa	4A	4A	4dd	4g	4dd
2r	2r	2r	4r	2r	2r	2r	2r	2r	2r	2r	4r	4r	2r	2r	2r
.	.	.	8d	.	.	.	.	.	.	.	8D	8D	.	.	.
.	.	.	8e	.	.	.	.	.	.	.	8E	8E	.	.	.
=45	=45	=45	=45	=45	=45	=45	=45	=45	=45	=45	=45	=45	=45	=45	=45
4r	[2.dd	4D	4f#	4r	4r	4D	4D	4r	4r	4r	4F#	4F#	4r	4r	[2.dd
4aa	.	2r	4d	4d 4c	4F# 4A	2r	2r	4aa	4ccc	4ff#	4D	4D	4dd	4g	.
4aa	.	.	4aa 4cc 4d	4c 4d	4F# 4A	.	.	4aa	4ccc	4ff#	4c	4c	4dd	4g	.
=46	=46	=46	=46	=46	=46	=46	=46	=46	=46	=46	=46	=46	=46	=46	=46
4r	2.dd_	4D	4f#	4r	4r	4D	4D	4r	4r	4r	4F#	4F#	4r	4r	2.dd_
4aa	.	2r	4d	4cc 4d	4A 4F#	2r	2r	4aa	4ccc	4ff#	4D	4D	4dd	4g	.
4aa	.	.	4aa 4cc 4d	4cc 4d	4A 4F#	.	.	4aa	4ccc	4ff#	4c	4c	4dd	4g	.
=47	=47	=47	=47	=47	=47	=47	=47	=47	=47	=47	=47	=47	=47	=47	=47
4r	4dd]	4D	4f#	4r	4r	4D	4D	4r	4r	4r	4F#	4F#	4r	4r	4dd]
4aa	4dd	4D	4d	4ff# 4a	4D 4A	2r	2r	4aa	4ccc	4ff#	4D	4D	4dd	4g	4dd
4aa	4dd	4D	4aa 4d 4cc	4a 4ff#	4A 4D	.	.	4aa	4ccc	4ff#	4c	4c	4dd	4g	4dd
=48	=48	=48	=48	=48	=48	=48	=48	=48	=48	=48	=48	=48	=48	=48	=48
2aa	2dd	2D	2ccc	2ff# 2a	2D 2A	2D	2D	2aa	2ccc	2ff#	2DD	2DD	2dd	2g	2dd
4r	4r	4r	8b	8g	4r	4r	4r	4r	8b	8g	8B	8G	4r	4r	4r
.	.	.	8cc	8a	.	.	.	.	8cc	8a	8c	8A	.	.	.
=49	=49	=49	=49	=49	=49	=49	=49	=49	=49	=49	=49	=49	=49	=49	=49
2.r	2.r	2.r	4dd	4b	2.r	2.r	2.r	2.r	4dd	4b	4d	4B	2.r	2.r	2.r
.	.	.	4r	4r	.	.	.	.	4r	4r	4r	4r	.	.	.
.	.	.	8b	8g	.	.	.	.	8b	8g	8B	8G	.	.	.
.	.	.	8cc	8a	.	.	.	.	8cc	8a	8c	8A	.	.	.
=50	=50	=50	=50	=50	=50	=50	=50	=50	=50	=50	=50	=50	=50	=50	=50
2.r	2.r	2.r	4dd	4b	2.r	2.r	2.r	2.r	4dd	4b	4d	4B	2.r	2.r	2.r
.	.	.	4r	4r	.	.	.	.	4r	4r	4r	4r	.	.	.
.	.	.	8b	8g	.	.	.	.	8b	8g	8B	8G	.	.	.
.	.	.	8cc	8a	.	.	.	.	8cc	8a	8c	8A	.	.	.
=51	=51	=51	=51	=51	=51	=51	=51	=51	=51	=51	=51	=51	=51	=51	=51
2.r	2.r	2.r	8dd	8b	2.r	2.r	2.r	2.r	8dd	8b	8d	8B	2.r	2.r	2.r
.	.	.	8ee	8cc	.	.	.	.	8ee	8cc	8e	8c	.	.	.
.	.	.	8ff#	8dd	.	.	.	.	8ff#	8dd	8f#	8d	.	.	.
.	.	.	8gg	8ee	.	.	.	.	8gg	8ee	8g	8e	.	.	.
.	.	.	8ff#	8dd	.	.	.	.	8ff#	8dd	8f#	8d	.	.	.
.	.	.	8ee	8cc	.	.	.	.	8ee	8cc	8e	8c	.	.	.
=52	=52	=52	=52	=52	=52	=52	=52	=52	=52	=52	=52	=52	=52	=52	=52
2.r	2.r	2.r	4dd	4b	2.r	2.r	2.r	2.r	4dd	4b	4d	4B	2r	2r	2.r
.	.	.	4cc	4a	.	.	.	.	4cc	4a	4c	4A	.	.	.
.	.	.	4b	4g	.	.	.	.	4b	4g	4B	4G	4cc	4e	.
=53	=53	=53	=53	=53	=53	=53	=53	=53	=53	=53	=53	=53	=53	=53	=53
2.r	2.r	2.r	4a	4d	2.r	2.r	2.r	2.r	4a	4d	4A	4D	4dd	4g	2.r
.	.	.	4g	4B	.	.	.	.	4g	4g	4G	4BB	4cc	4e	.
.	.	.	4a	4d	.	.	.	.	4a	4d	4A	4D	4dd	4g	.
=54	=54	=54	=54	=54	=54	=54	=54	=54	=54	=54	=54	=54	=54	=54	=54
2.gg	2.r	2.r	2.G 2.g	4B	2.B	8GG	4GG	2.r	4g	4g	4G	4BB	4cc	4e	2.r
.	.	.	.	.	.	8G	.	.	.	.	.	.	.	.	.
.	.	.	.	4d	.	8GG	2r	.	2r	2r	2r	2r	2r	2r	.
.	.	.	.	.	.	8G	.	.	.	.	.	.	.	.	.
.	.	.	.	4g	.	8GG	.	.	.	.	.	.	.	.	.
.	.	.	.	.	.	8G	.	.	.	.	.	.	.	.	.
=55	=55	=55	=55	=55	=55	=55	=55	=55	=55	=55	=55	=55	=55	=55	=55
4bb	2.r	2.r	4b	2.f	2.d	8GG	4GG	2.r	2.r	2.r	2.d	2.d	2.r	2.r	2.r
.	.	.	.	.	.	8G	.	.	.	.	.	.	.	.	.
4aa	.	.	4a	.	.	8GG	2r	.	.	.	.	.	.	.	.
.	.	.	.	.	.	8G	.	.	.	.	.	.	.	.	.
4bb	.	.	4b	.	.	8GG	.	.	.	.	.	.	.	.	.
.	.	.	.	.	.	8G	.	.	.	.	.	.	.	.	.
=56	=56	=56	=56	=56	=56	=56	=56	=56	=56	=56	=56	=56	=56	=56	=56
2.ccc	2.r	2.r	2.e 2.cc	4e	2.e	8GG	4GG	2.r	2.r	2.r	2.e	2.e	2.r	2.r	2.r
.	.	.	.	.	.	8G	.	.	.	.	.	.	.	.	.
.	.	.	.	4g	.	8GG	2r	.	.	.	.	.	.	.	.
.	.	.	.	.	.	8G	.	.	.	.	.	.	.	.	.
.	.	.	.	4e	.	8GG	.	.	.	.	.	.	.	.	.
.	.	.	.	.	.	8G	.	.	.	.	.	.	.	.	.
=57	=57	=57	=57	=57	=57	=57	=57	=57	=57	=57	=57	=57	=57	=57	=57
4aa	2.r	2.r	4a	2.c 2.f#	2.c	8GG	4GG	2.r	2.r	2.r	2.c	2.c	2.r	2.r	2.r
.	.	.	.	.	.	8G	.	.	.	.	.	.	.	.	.
4gg	.	.	4g	.	.	8GG	2r	.	.	.	.	.	.	.	.
.	.	.	.	.	.	8G	.	.	.	.	.	.	.	.	.
4aa	.	.	4a	.	.	8GG	.	.	.	.	.	.	.	.	.
.	.	.	.	.	.	8G	.	.	.	.	.	.	.	.	.
=58	=58	=58	=58	=58	=58	=58	=58	=58	=58	=58	=58	=58	=58	=58	=58
2.gg	2.r	2.r	2.g 2.G	4B 4g	2.B	8GG	4GG	2.r	2.r	2.r	2.B	2.B	2.r	2.r	2.r
.	.	.	.	.	.	8G	.	.	.	.	.	.	.	.	.
.	.	.	.	4d	.	8GG	2r	.	.	.	.	.	.	.	.
.	.	.	.	.	.	8G	.	.	.	.	.	.	.	.	.
.	.	.	.	4B	.	8GG	.	.	.	.	.	.	.	.	.
.	.	.	.	.	.	8G	.	.	.	.	.	.	.	.	.
=59	=59	=59	=59	=59	=59	=59	=59	=59	=59	=59	=59	=59	=59	=59	=59
4bb	2.g	4GG	4b	2.f	2.d	8GG	4GG	4bb	2.ff	2.dd	2.d	2.F	4cc	4c	2.dd
.	.	.	.	.	.	8G	.	.	.	.	.	.	.	.	.
4aa	.	4GG	4a	.	.	8GG	2r	4aa	.	.	.	.	4cc	4c	.
.	.	.	.	.	.	8G	.	.	.	.	.	.	.	.	.
4bb	.	4GG	4b	.	.	8GG	.	4bb	.	.	.	.	4cc	4c	.
.	.	.	.	.	.	8G	.	.	.	.	.	.	.	.	.
=60	=60	=60	=60	=60	=60	=60	=60	=60	=60	=60	=60	=60	=60	=60	=60
2.ccc	2.cc	4GG	2.e 2.cc	4e	4c	8GG	4GG	2.ccc	2.ee	2.cc	2.c	2.E	4cc	4c	2.ee
.	.	.	.	.	.	8G	.	.	.	.	.	.	.	.	.
.	.	2r	.	4g	4e	8GG	2r	.	.	.	.	.	2r	2r	.
.	.	.	.	.	.	8G	.	.	.	.	.	.	.	.	.
.	.	.	.	4e	4c	8GG	.	.	.	.	.	.	.	.	.
.	.	.	.	.	.	8G	.	.	.	.	.	.	.	.	.
=61	=61	=61	=61	=61	=61	=61	=61	=61	=61	=61	=61	=61	=61	=61	=61
4aa	2.dd	4GG	4f#	2.c	2.A	8GG	4GG	4aa	4ff#	2.cc	2.A	2.F#	2.dd	2.g	2.dd
.	.	.	.	.	.	8G	.	.	.	.	.	.	.	.	.
4gg	.	8GG	4e	.	.	8GG	2r	4gg	4ee	.	.	.	.	.	.
.	.	8GG	.	.	.	8G	.	.	.	.	.	.	.	.	.
4aa	.	8GG	4f#	.	.	8GG	.	4aa	4ff#	.	.	.	.	.	.
.	.	8GG	.	.	.	8G	.	.	.	.	.	.	.	.	.
=62	=62	=62	=62	=62	=62	=62	=62	=62	=62	=62	=62	=62	=62	=62	=62
4gg	4g	4GG	4gg 4b 4d	4g 4B	4B	4GG	4GG	4gg	4gg	4b	4G	4G	4ee	4cc	4dd
4r	4r	4r	4r	4r	4r	4r	4r	4r	4r	4r	4r	4r	4r	4r	4r
4r	4r	4r	8cc#	4r	4r	4r	4r	4r	4r	4r	8c#	4r	4r	4r	4r
.	.	.	8dd	.	.	.	.	.	.	.	8d	.	.	.	.
=63	=63	=63	=63	=63	=63	=63	=63	=63	=63	=63	=63	=63	=63	=63	=63
2.r	2.r	2.r	8ee	2r	2r	2r	2r	2.r	2.r	2.r	8e	2.r	2.r	2.r	2.r
.	.	.	8dd	.	.	.	.	.	.	.	8d	.	.	.	.
.	.	.	8cc	.	.	.	.	.	.	.	8c	.	.	.	.
.	.	.	8b	.	.	.	.	.	.	.	8B	.	.	.	.
.	.	.	8a	4B	4G	4G	4G	.	.	.	8A	.	.	.	.
.	.	.	8g	.	.	.	.	.	.	.	8G	.	.	.	.
=64	=64	=64	=64	=64	=64	=64	=64	=64	=64	=64	=64	=64	=64	=64	=64
2.r	2.r	2.r	4f#	4c	4A	4A	4A	2.r	2.r	2.r	4F#	2.r	2.r	2.r	2.r
.	.	.	4dd	4r	4r	4r	4r	.	.	.	4d	.	.	.	.
.	.	.	4f#	4c	4A	4A	4A	.	.	.	4F#	.	.	.	.
=65	=65	=65	=65	=65	=65	=65	=65	=65	=65	=65	=65	=65	=65	=65	=65
2.r	2.r	2.r	4g	4d	4B	4B	4B	2.r	2.r	2.r	4G	2.r	2.r	2.r	2.r
.	.	.	8gg	4r	4r	4r	4r	.	.	.	8g	.	.	.	.
.	.	.	8ff#	.	.	.	.	.	.	.	8f#	.	.	.	.
.	.	.	8ee	4B	4G	4G	4G	.	.	.	8e	.	.	.	.
.	.	.	8dd	.	.	.	.	.	.	.	8d	.	.	.	.
=66	=66	=66	=66	=66	=66	=66	=66	=66	=66	=66	=66	=66	=66	=66	=66
2.r	2.r	2.r	4cc	4c	4A	4A	4A	2.r	2.r	2.r	4c	2.r	2.r	2.r	2.r
.	.	.	4r	2r	2r	2r	2r	.	.	.	4r	.	.	.	.
.	.	.	8a	.	.	.	.	.	.	.	8A	.	.	.	.
.	.	.	8b	.	.	.	.	.	.	.	8B	.	.	.	.
=67	=67	=67	=67	=67	=67	=67	=67	=67	=67	=67	=67	=67	=67	=67	=67
2.r	2.r	2.r	8cc	2.r	2.r	2.r	2.r	2.r	2.r	2.r	8c	2.r	2.r	2.r	2.r
.	.	.	8b	.	.	.	.	.	.	.	8B	.	.	.	.
.	.	.	8a	.	.	.	.	.	.	.	8A	.	.	.	.
.	.	.	8g	.	.	.	.	.	.	.	8G	.	.	.	.
.	.	.	8f#	.	.	.	.	.	.	.	8F#	.	.	.	.
.	.	.	8e	.	.	.	.	.	.	.	8E	.	.	.	.
=68	=68	=68	=68	=68	=68	=68	=68	=68	=68	=68	=68	=68	=68	=68	=68
2.r	2.r	2.r	4d#	2.d# 2.A	2.F#	2.BB	2.BB	2.r	2.r	2.r	4D#	2.r	2.r	2.r	2.r
.	.	.	4b	.	.	.	.	.	.	.	4B	.	.	.	.
.	.	.	4d#	.	.	.	.	.	.	.	4D#	.	.	.	.
=69	=69	=69	=69	=69	=69	=69	=69	=69	=69	=69	=69	=69	=69	=69	=69
2.r	2.r	2.r	4e	4G 4e	4G	4E	4E	2.r	2.r	2.r	4E	2.r	2.r	2.r	2.r
.	.	.	8a	2c#	2E	2AA	2AA	.	.	.	8A	.	.	.	.
.	.	.	8g	.	.	.	.	.	.	.	8G	.	.	.	.
.	.	.	8f#	.	.	.	.	.	.	.	8F#	.	.	.	.
.	.	.	8e	.	.	.	.	.	.	.	8E	.	.	.	.
=70	=70	=70	=70	=70	=70	=70	=70	=70	=70	=70	=70	=70	=70	=70	=70
2r	2r	2r	4d	4d	4F#	4D	4D	2r	2r	2r	4D	2r	2r	2r	2r
.	.	.	4r	4r	4r	4r	4r	.	.	.	4r	.	.	.	.
4r	4r	4r	8cc#	4r	4r	4r	4r	4r	4r	4r	4r	4r	4r	4r	4r
.	.	.	8dd	.	.	.	.	.	.	.	.	.	.	.	.
=71	=71	=71	=71	=71	=71	=71	=71	=71	=71	=71	=71	=71	=71	=71	=71
2.r	2.r	2.r	8ee	2r	2.r	2.r	2.r	2.r	2.r	2.r	2.r	2.r	2.r	2.r	2.r
.	.	.	8dd	.	.	.	.	.	.	.	.	.	.	.	.
.	.	.	8cc	.	.	.	.	.	.	.	.	.	.	.	.
.	.	.	8b	.	.	.	.	.	.	.	.	.	.	.	.
.	.	.	8a	8G	.	.	.	.	.	.	.	.	.	.	.
.	.	.	8g	8A	.	.	.	.	.	.	.	.	.	.	.
=72	=72	=72	=72	=72	=72	=72	=72	=72	=72	=72	=72	=72	=72	=72	=72
2.r	2.r	2.r	4f	8B	2.r	2r	2r	2.r	2.r	2.r	2.r	2.r	2.r	2.r	2.r
.	.	.	.	8A	.	.	.	.	.	.	.	.	.	.	.
.	.	.	4dd	8B	.	.	.	.	.	.	.	.	.	.	.
.	.	.	.	8G	.	.	.	.	.	.	.	.	.	.	.
.	.	.	4f	8A	.	4G	4G	.	.	.	.	.	.	.	.
.	.	.	.	8B	.	.	.	.	.	.	.	.	.	.	.
=73	=73	=73	=73	=73	=73	=73	=73	=73	=73	=73	=73	=73	=73	=73	=73
2.r	2.r	2.r	4e	8c	2.r	4C	4C	2.r	2.r	2.r	2.r	2.r	2.r	2.r	2.r
.	.	.	.	8B	.	.	.	.	.	.	.	.	.	.	.
.	.	.	4ee	8c	.	4r	4r	.	.	.	.	.	.	.	.
.	.	.	.	8A	.	.	.	.	.	.	.	.	.	.	.
.	.	.	4g	8B	.	4A	4A	.	.	.	.	.	.	.	.
.	.	.	.	8c#	.	.	.	.	.	.	.	.	.	.	.
=74	=74	=74	=74	=74	=74	=74	=74	=74	=74	=74	=74	=74	=74	=74	=74
2.r	2.r	2.r	4f#	8d	2.r	4D	4D	2.r	2.r	2.r	2.r	2.r	2.r	2.r	2.r
.	.	.	.	8c#	.	.	.	.	.	.	.	.	.	.	.
.	.	.	4ff#	8d	.	4r	4r	.	.	.	.	.	.	.	.
.	.	.	.	8B	.	.	.	.	.	.	.	.	.	.	.
.	.	.	4a	8c#	.	4B	4B	.	.	.	.	.	.	.	.
.	.	.	.	8d#	.	.	.	.	.	.	.	.	.	.	.
=75	=75	=75	=75	=75	=75	=75	=75	=75	=75	=75	=75	=75	=75	=75	=75
2.r	2.r	2.r	4g	8e	2.r	4E	4E	2.r	2.r	2.r	2.r	2.r	2.r	2.r	2.r
.	.	.	.	8d#	.	.	.	.	.	.	.	.	.	.	.
.	.	.	8gg	8e	.	2r	2r	.	.	.	.	.	.	.	.
.	.	.	8ff#	8f#	.	.	.	.	.	.	.	.	.	.	.
.	.	.	8ee	8g	.	.	.	.	.	.	.	.	.	.	.
.	.	.	8dd	8f#	.	.	.	.	.	.	.	.	.	.	.
=76	=76	=76	=76	=76	=76	=76	=76	=76	=76	=76	=76	=76	=76	=76	=76
2.r	2.r	2.r	4cc#	8e	8g	4A	4A	2.r	2.r	2.r	2.r	2.r	2.r	2.r	2.r
.	.	.	.	8f#	8f#	.	.	.	.	.	.	.	.	.	.
.	.	.	4bb	8g	8e	2r	2r	.	.	.	.	.	.	.	.
.	.	.	.	8f#	8d	.	.	.	.	.	.	.	.	.	.
.	.	.	4cc#	8g	8e	.	.	.	.	.	.	.	.	.	.
.	.	.	.	8e	8g	.	.	.	.	.	.	.	.	.	.
=77	=77	=77	=77	=77	=77	=77	=77	=77	=77	=77	=77	=77	=77	=77	=77
2.r	2.r	2.r	8cc#	4f#	4f#	4D	4D	2.r	2.r	2.r	2.r	2.r	2.r	2.r	2.r
.	.	.	8dd	.	.	.	.	.	.	.	.	.	.	.	.
.	.	.	8ee	2r	2r	2r	2r	.	.	.	.	.	.	.	.
.	.	.	8dd	.	.	.	.	.	.	.	.	.	.	.	.
.	.	.	8cc#	.	.	.	.	.	.	.	.	.	.	.	.
.	.	.	8dd	.	.	.	.	.	.	.	.	.	.	.	.
=78	=78	=78	=78	=78	=78	=78	=78	=78	=78	=78	=78	=78	=78	=78	=78
2.r	2.r	2.r	4cc#	8e	8g	4AA	4AA	2.r	2.r	2.r	2.r	2.r	2.r	2.r	2.r
.	.	.	.	8f#	8f#	.	.	.	.	.	.	.	.	.	.
.	.	.	4bb	8g	8e	2r	2r	.	.	.	.	.	.	.	.
.	.	.	.	8f#	8d	.	.	.	.	.	.	.	.	.	.
.	.	.	4cc#	8g	8e	.	.	.	.	.	.	.	.	.	.
.	.	.	.	8e	8g	.	.	.	.	.	.	.	.	.	.
=79	=79	=79	=79	=79	=79	=79	=79	=79	=79	=79	=79	=79	=79	=79	=79
2.r	2.r	2.r	8cc#	4f#	4f#	4D	4D	2.r	2.r	2.r	2.r	2.r	2.r	2.r	2.r
.	.	.	8dd	.	.	.	.	.	.	.	.	.	.	.	.
.	.	.	8ee	2r	2r	2r	2r	.	.	.	.	.	.	.	.
.	.	.	8dd	.	.	.	.	.	.	.	.	.	.	.	.
.	.	.	8cc#	.	.	.	.	.	.	.	.	.	.	.	.
.	.	.	8dd	.	.	.	.	.	.	.	.	.	.	.	.
=80	=80	=80	=80	=80	=80	=80	=80	=80	=80	=80	=80	=80	=80	=80	=80
2.r	2.r	2.r	8cc#	2.r	2.r	2.r	2.r	2.r	2.r	2.r	2r	2.r	2.r	2.r	2.r
.	.	.	8dd	.	.	.	.	.	.	.	.	.	.	.	.
.	.	.	8ee	.	.	.	.	.	.	.	.	.	.	.	.
.	.	.	8dd	.	.	.	.	.	.	.	.	.	.	.	.
.	.	.	8cc#	.	.	.	.	.	.	.	8c#	.	.	.	.
.	.	.	8dd	.	.	.	.	.	.	.	8d	.	.	.	.
=81	=81	=81	=81	=81	=81	=81	=81	=81	=81	=81	=81	=81	=81	=81	=81
2.r	2.r	2.r	8cc#	2.r	2.r	2.r	2.r	2.r	2.r	2.r	8c#	2.r	2.r	2.r	2.r
.	.	.	8dd	.	.	.	.	.	.	.	8d	.	.	.	.
.	.	.	8ee	.	.	.	.	.	.	.	8e	.	.	.	.
.	.	.	8dd	.	.	.	.	.	.	.	8d	.	.	.	.
.	.	.	8cc#	.	.	.	.	.	.	.	8c#	.	.	.	.
.	.	.	8dd	.	.	.	.	.	.	.	8d	.	.	.	.
=82	=82	=82	=82	=82	=82	=82	=82	=82	=82	=82	=82	=82	=82	=82	=82
2.r	2.r	2.r	8ee	2r	2r	2r	2r	2.r	2.r	2.r	8e	2.r	2.r	2.r	2.r
.	.	.	8dd	.	.	.	.	.	.	.	8d	.	.	.	.
.	.	.	8cc	.	.	.	.	.	.	.	8c	.	.	.	.
.	.	.	8b	.	.	.	.	.	.	.	8B	.	.	.	.
.	.	.	8a	4B	4G	4G	4G	.	.	.	8A	.	.	.	.
.	.	.	8g	.	.	.	.	.	.	.	8G	.	.	.	.
=83	=83	=83	=83	=83	=83	=83	=83	=83	=83	=83	=83	=83	=83	=83	=83
2.r	2.r	2.r	4f#	4c	4A	4A	4A	2.r	2.r	2.r	4F#	2.r	2.r	2.r	2.r
.	.	.	4dd	4r	4r	4r	4r	.	.	.	4d	.	.	.	.
.	.	.	4f#	4c	4A	4A	4A	.	.	.	4F#	.	.	.	.
=84	=84	=84	=84	=84	=84	=84	=84	=84	=84	=84	=84	=84	=84	=84	=84
2.r	2.r	2.r	4g	4d	4B	4B	4B	2.r	2.r	2.r	4G	2.r	2.r	2.r	2.r
.	.	.	8gg	4r	4r	4r	4r	.	.	.	8g	.	.	.	.
.	.	.	8ff#	.	.	.	.	.	.	.	8f#	.	.	.	.
.	.	.	8ee	4B	4G	4G	4G	.	.	.	8e	.	.	.	.
.	.	.	8dd	.	.	.	.	.	.	.	8d	.	.	.	.
=85	=85	=85	=85	=85	=85	=85	=85	=85	=85	=85	=85	=85	=85	=85	=85
2.r	2.r	2.r	4cc	4c	4A	4A	4A	2.r	2.r	2.r	4c	2.r	2.r	2.r	2.r
.	.	.	4r	2r	2r	2r	2r	.	.	.	4r	.	.	.	.
.	.	.	8a	.	.	.	.	.	.	.	8A	.	.	.	.
.	.	.	8b	.	.	.	.	.	.	.	8B	.	.	.	.
=86	=86	=86	=86	=86	=86	=86	=86	=86	=86	=86	=86	=86	=86	=86	=86
2.r	2.r	2.r	8cc	2.r	2.r	2.r	2.r	2.r	2.r	2.r	8c	2.r	2.r	2.r	2.r
.	.	.	8b	.	.	.	.	.	.	.	8B	.	.	.	.
.	.	.	8a	.	.	.	.	.	.	.	8A	.	.	.	.
.	.	.	8g	.	.	.	.	.	.	.	8G	.	.	.	.
.	.	.	8f#	.	.	.	.	.	.	.	8F#	.	.	.	.
.	.	.	8e	.	.	.	.	.	.	.	8E	.	.	.	.
=87	=87	=87	=87	=87	=87	=87	=87	=87	=87	=87	=87	=87	=87	=87	=87
2.r	2.r	2.r	4d	2.f# 2.A	[2.D	2.C	2.C	2.r	2.r	2.r	4D	2.r	2.r	2.r	2.r
.	.	.	8dd	.	.	.	.	.	.	.	8d	.	.	.	.
.	.	.	8cc	.	.	.	.	.	.	.	8c	.	.	.	.
.	.	.	8b	.	.	.	.	.	.	.	8B	.	.	.	.
.	.	.	8a	.	.	.	.	.	.	.	8A	.	.	.	.
=88	=88	=88	=88	=88	=88	=88	=88	=88	=88	=88	=88	=88	=88	=88	=88
2.r	2.r	2.r	4g	4G 4g	4D]	4BB	4BB	2.r	2.r	2.r	4G	2.r	2.r	2.r	2.r
.	.	.	8d	4r	4r	4r	4r	.	.	.	8D	.	.	.	.
.	.	.	8c	.	.	.	.	.	.	.	8C	.	.	.	.
.	.	.	8B	4A 4f#	4c	4D	4D	.	.	.	8BB	.	.	.	.
.	.	.	8A	.	.	.	.	.	.	.	8AA	.	.	.	.
=89	=89	=89	=89	=89	=89	=89	=89	=89	=89	=89	=89	=89	=89	=89	=89
2.r	2.r	2.r	4G	4g 4G	4B	4GG	4GG	2.r	2.r	2.r	4GG	2.r	2.r	2.r	2.r
.	.	.	2r	2r	2r	2r	2r	.	.	.	2r	.	.	.	.
==	==	==	==	==	==	==	==	==	==	==	==	==	==	==	==
*-	*-	*-	*-	*-	*-	*-	*-	*-	*-	*-	*-	*-	*-	*-	*-
!!!RWG1: This file contains only pitch and duration data.
!!!RWG2: Transposing instruments are not transposed.
!!!RWG3: Spines may have incompatible meters.
!!!RWG4: Durations of rests and tied notes may be interpreted.
!!!RWG: Key is interpreted using the Humdrum key tool.
!!!OPT: The Surprise
!!!AFT: stage1
!!!END: 1997/04/15
!!format changes:
!!content changes:
!!public access: complete
!!!KEY: 908205087
!!!EMD: Converted from MuseData to Humdrum Dec 16, 2000, by Andreas Kornstaedt using muse2kern.
